assets/img/braze_icons/file-shield-02.svg

<svg fill="none" height="24" viewBox="0 0 24 24" width="24" xmlns="http://www.w3.org/2000/svg"><g fill="#801ed7"><path clip-rule="evenodd" d="m8.7587 1h6.4826c.805-.000012 1.4693-.000021 2.0105.0442.5621.04592 1.0788.14448 1.5642.39178.7526.38349 1.3645.99541 1.748 1.74806.2473.48534.3459 1.00204.3918 1.56414.0442.54119.0442 1.20554.0442 2.0105v4.84292c0 .3823 0 .5734-.0802.6974-.0702.1084-.1796.1855-.3053.2151-.1437.0338-.3237-.0305-.6837-.1591l-.1067-.0382-.0012-.0004-.001-.0004c-1.1786-.4215-2.4675-.4213-3.646.0004l-2.1859.7815c-1.1934.4267-1.99 1.5574-1.99 2.8249v2.5023c0 1.1993.3928 2.2086.9011 3.0166.391.6215.5865.9322.5735 1.0973-.0127.1624-.0693.265-.2.3621-.1328.0989-.4568.0989-1.1046.0989h-3.41132c-.80496 0-1.46931 0-2.0105-.0442-.5621-.0459-1.0788-.1445-1.56414-.3918-.75265-.3835-1.36457-.9954-1.74806-1.748-.2473-.4854-.34586-1.0021-.39178-1.5642-.04422-.5412-.04421-1.2055-.0442-2.0105v-10.48261c-.00001-.80496-.00002-1.46933.0442-2.01051.04592-.5621.14448-1.0788.39178-1.56414.38349-.75265.99541-1.36457 1.74806-1.74806.48534-.2473 1.00204-.34586 1.56414-.39178.54118-.044221 1.20557-.044212 2.01052-.0442zm-1.7587 8c-.55228 0-1 .44771-1 1 0 .5523.44772 1 1 1h6c.5523 0 1-.4477 1-1 0-.55229-.4477-1-1-1zm-1 5c0-.5523.44772-1 1-1h2c.55229 0 1 .4477 1 1s-.44771 1-1 1h-2c-.55228 0-1-.4477-1-1zm1-9c-.55228 0-1 .44772-1 1 0 .55229.44772 1 1 1h8c.5523 0 1-.44771 1-1 0-.55228-.4477-1-1-1z" fill-rule="evenodd"/><path d="m21.3365 14.981-2.1869-.7815c-.7432-.266-1.5572-.266-2.3004 0l-2.1859.7815c-.3978.1423-.6633.5192-.6633.9417v2.5023c0 1.539 1.0565 2.6898 1.8595 3.3596.4264.3557.8476.6313 1.1599.8173.1795.1069.3623.2082.5498.3003.1584.0756.7436.058.912-.0248.084-.042.2634-.1349.4994-.2755.3123-.186.7335-.4616 1.1599-.8173.8031-.6698 1.8595-1.8206 1.8595-3.3596v-2.5023c0-.4226-.2656-.7996-.6635-.9417z"/></g></svg>

<svg width="24" height="24" viewBox="0 0 24 24" fill="none" xmlns="http://www.w3.org/2000/svg">
<path fill-rule="evenodd" clip-rule="evenodd" d="M8.7587 1H15.2413C16.0463 0.999988 16.7106 0.999979 17.2518 1.0442C17.8139 1.09012 18.3306 1.18868 18.816 1.43598C19.5686 1.81947 20.1805 2.43139 20.564 3.18404C20.8113 3.66938 20.9099 4.18608 20.9558 4.74818C21 5.28937 21 5.95372 21 6.75868V11.6016C21 11.9839 21 12.175 20.9198 12.299C20.8496 12.4074 20.7402 12.4845 20.6145 12.5141C20.4708 12.5479 20.2908 12.4836 19.9308 12.355L19.8241 12.3168L19.8229 12.3164L19.8219 12.316C18.6433 11.8945 17.3544 11.8947 16.1759 12.3164L13.99 13.0979C12.7966 13.5246 12 14.6553 12 15.9228V18.4251C12 19.6244 12.3928 20.6337 12.9011 21.4417C13.2921 22.0632 13.4876 22.3739 13.4746 22.539C13.4619 22.7014 13.4053 22.804 13.2746 22.9011C13.1418 23 12.8178 23 12.17 23H8.75868C7.95372 23 7.28937 23 6.74818 22.9558C6.18608 22.9099 5.66938 22.8113 5.18404 22.564C4.43139 22.1805 3.81947 21.5686 3.43598 20.816C3.18868 20.3306 3.09012 19.8139 3.0442 19.2518C2.99998 18.7106 2.99999 18.0463 3 17.2413V6.75869C2.99999 5.95373 2.99998 5.28936 3.0442 4.74818C3.09012 4.18608 3.18868 3.66938 3.43598 3.18404C3.81947 2.43139 4.43139 1.81947 5.18404 1.43598C5.66938 1.18868 6.18608 1.09012 6.74818 1.0442C7.28936 0.999979 7.95375 0.999988 8.7587 1ZM7 9C6.44772 9 6 9.44771 6 10C6 10.5523 6.44772 11 7 11H13C13.5523 11 14 10.5523 14 10C14 9.44771 13.5523 9 13 9H7ZM6 14C6 13.4477 6.44772 13 7 13H9C9.55229 13 10 13.4477 10 14C10 14.5523 9.55229 15 9 15H7C6.44772 15 6 14.5523 6 14ZM7 5C6.44772 5 6 5.44772 6 6C6 6.55229 6.44772 7 7 7H15C15.5523 7 16 6.55229 16 6C16 5.44772 15.5523 5 15 5H7Z" fill="#801ED7"/>
<path d="M21.3365 14.981L19.1496 14.1995C18.4064 13.9335 17.5924 13.9335 16.8492 14.1995L14.6633 14.981C14.2655 15.1233 14 15.5002 14 15.9227V18.425C14 19.964 15.0565 21.1148 15.8595 21.7846C16.2859 22.1403 16.7071 22.4159 17.0194 22.6019C17.1989 22.7088 17.3817 22.8101 17.5692 22.9022C17.7276 22.9778 18.3128 22.9602 18.4812 22.8774C18.5652 22.8354 18.7446 22.7425 18.9806 22.6019C19.2929 22.4159 19.7141 22.1403 20.1405 21.7846C20.9436 21.1148 22 19.964 22 18.425V15.9227C22 15.5001 21.7344 15.1231 21.3365 14.981Z" fill="#801ED7"/>
</svg>
